svgs/sharp-light/border-all.svg

<svg xmlns="http://www.w3.org/2000/svg" viewBox="0 0 448 512"><!--! Font Awesome Pro 6.6.0 by @fontawesome - https://fontawesome.com License - https://fontawesome.com/license (Commercial License) Copyright 2024 Fonticons, Inc. --><path d="M416 64l0 176-176 0 0-176 176 0zm0 208l0 176-176 0 0-176 176 0zM208 240L32 240 32 64l176 0 0 176zM32 272l176 0 0 176L32 448l0-176zM32 32L0 32 0 64 0 448l0 32 32 0 384 0 32 0 0-32 0-384 0-32-32 0L32 32z"/></svg>

<svg xmlns="http://www.w3.org/2000/svg" viewBox="0 0 448 512"><!--! Font Awesome Pro 6.4.2 by @fontawesome - https://fontawesome.com License - https://fontawesome.com/license (Commercial License) Copyright 2023 Fonticons, Inc. --><path d="M416 64V240H240V64H416zm0 208V448H240V272H416zM208 240H32V64H208V240zM32 272H208V448H32V272zM32 32H0V64 448v32H32 416h32V448 64 32H416 32z"/></svg>
